material/.icons/material/eye-circle.svg

<svg xmlns="http://www.w3.org/2000/svg" viewBox="0 0 24 24"><path d="M12 9.5A2.5 2.5 0 009.5 12a2.5 2.5 0 002.5 2.5 2.5 2.5 0 002.5-2.5A2.5 2.5 0 0012 9.5m0 3.5a1 1 0 01-1-1 1 1 0 011-1 1 1 0 011 1 1 1 0 01-1 1m0-3.5A2.5 2.5 0 009.5 12a2.5 2.5 0 002.5 2.5 2.5 2.5 0 002.5-2.5A2.5 2.5 0 0012 9.5m0 3.5a1 1 0 01-1-1 1 1 0 011-1 1 1 0 011 1 1 1 0 01-1 1m0-11A10 10 0 002 12a10 10 0 0010 10 10 10 0 0010-10A10 10 0 0012 2m0 14c-2.63 0-5-1.57-6-4a6.505 6.505 0 018.5-3.5A6.52 6.52 0 0118 12c-1 2.43-3.37 4-6 4m0-6.5A2.5 2.5 0 009.5 12a2.5 2.5 0 002.5 2.5 2.5 2.5 0 002.5-2.5A2.5 2.5 0 0012 9.5m0 3.5a1 1 0 01-1-1 1 1 0 011-1 1 1 0 011 1 1 1 0 01-1 1z"/></svg>

<?xml version="1.0" encoding="UTF-8"?><!DOCTYPE svg PUBLIC "-//W3C//DTD SVG 1.1//EN" "http://www.w3.org/Graphics/SVG/1.1/DTD/svg11.dtd"><svg xmlns="http://www.w3.org/2000/svg" xmlns:xlink="http://www.w3.org/1999/xlink" version="1.1" id="mdi-eye-circle" width="24" height="24" viewBox="0 0 24 24"><path d="M12,9.5A2.5,2.5 0 0,0 9.5,12A2.5,2.5 0 0,0 12,14.5A2.5,2.5 0 0,0 14.5,12A2.5,2.5 0 0,0 12,9.5M12,13A1,1 0 0,1 11,12A1,1 0 0,1 12,11A1,1 0 0,1 13,12A1,1 0 0,1 12,13M12,9.5A2.5,2.5 0 0,0 9.5,12A2.5,2.5 0 0,0 12,14.5A2.5,2.5 0 0,0 14.5,12A2.5,2.5 0 0,0 12,9.5M12,13A1,1 0 0,1 11,12A1,1 0 0,1 12,11A1,1 0 0,1 13,12A1,1 0 0,1 12,13M12,2A10,10 0 0,0 2,12A10,10 0 0,0 12,22A10,10 0 0,0 22,12A10,10 0 0,0 12,2M12,16C9.37,16 7,14.43 6,12C7.38,8.69 11.19,7.12 14.5,8.5C16.08,9.16 17.34,10.42 18,12C17,14.43 14.63,16 12,16M12,9.5A2.5,2.5 0 0,0 9.5,12A2.5,2.5 0 0,0 12,14.5A2.5,2.5 0 0,0 14.5,12A2.5,2.5 0 0,0 12,9.5M12,13A1,1 0 0,1 11,12A1,1 0 0,1 12,11A1,1 0 0,1 13,12A1,1 0 0,1 12,13Z" /></svg>
